packages/calcite-ui-icons/icons/trace-path-32.svg

<?xml version="1.0" encoding="UTF-8"?><svg id="icons" xmlns="http://www.w3.org/2000/svg" viewBox="0 0 32 32"><defs><style>.cls-1{fill:none;}</style></defs><rect class="cls-1" width="32" height="32"/><path d="M29.20001,25h-.20001v-2h-1v2h-.20001c-.99408,0-1.79999.80585-1.79999,1.79999v1.40002c0,.99408.80591,1.79999,1.79999,1.79999h1.40002c.99408,0,1.79999-.80591,1.79999-1.79999v-1.40002c0-.99414-.80591-1.79999-1.79999-1.79999ZM30,28.2002c0,.44141-.3584.7998-.7998.7998h-1.40039c-.44141,0-.7998-.3584-.7998-.7998v-1.40039c0-.44141.3584-.7998.7998-.7998h1.40039c.44141,0,.7998.3584.7998.7998v1.40039ZM29,17h-1v-2h1v2ZM28,19h1v2h-1v-2ZM29,13h-1v-2h1v2ZM23,3h2v1h-2v-1ZM28,4h-1v-1h2v2h-1v-1ZM29,9h-1v-2h1v2ZM19,3h2v1h-2v-1ZM15,7h1v2h-1v-2ZM15,28H4V7h.20001c.99408,0,1.79999-.80591,1.79999-1.79999v-1.40002c0-.99414-.80591-1.79999-1.79999-1.79999h-1.40002c-.99408,0-1.79999.80585-1.79999,1.79999v1.40002c0,.99408.80591,1.79999,1.79999,1.79999h.20001v22h13v-6h-1v5ZM3,6h-.2002c-.44141,0-.7998-.3584-.7998-.7998v-1.40039c0-.44141.3584-.7998.7998-.7998h1.40039c.44141,0,.7998.3584.7998.7998v1.40039c0,.44141-.3584.7998-.7998.7998h-1.2002ZM15,11h1v2h-1v-2ZM15,19h1v2h-1v-2ZM17,3v1h-1v1h-1v-2h2ZM15,15h1v2h-1v-2Z"/></svg>

<svg xmlns="http://www.w3.org/2000/svg" viewBox="0 0 32 32"><path fill="none" d="M0 0h32v32H0z"/><path d="M29.2 25H29v-2h-1v2h-.2a1.8 1.8 0 0 0-1.8 1.8v1.4a1.8 1.8 0 0 0 1.8 1.8h1.4a1.8 1.8 0 0 0 1.8-1.8v-1.4a1.8 1.8 0 0 0-1.8-1.8zm.8 3.2a.8.8 0 0 1-.8.8h-1.4a.8.8 0 0 1-.8-.8v-1.4a.8.8 0 0 1 .8-.8h1.4a.8.8 0 0 1 .8.8v1.4zM29 17h-1v-2h1v2zm-1 2h1v2h-1v-2zm1-6h-1v-2h1v2zM23 3h2v1h-2V3zm5 1h-1V3h2v2h-1V4zm1 5h-1V7h1v2zM19 3h2v1h-2V3zm-4 4h1v2h-1V7zm0 21H4V7h.2A1.8 1.8 0 0 0 6 5.2V3.8A1.8 1.8 0 0 0 4.2 2H2.8A1.8 1.8 0 0 0 1 3.8v1.4A1.8 1.8 0 0 0 2.8 7H3v22h13v-6h-1v5zM3 6h-.2a.8.8 0 0 1-.8-.8V3.8a.8.8 0 0 1 .8-.8h1.4a.8.8 0 0 1 .8.8v1.4a.8.8 0 0 1-.8.8H3zm12 5h1v2h-1v-2zm0 8h1v2h-1v-2zm2-16v1h-1v1h-1V3h2zm-2 12h1v2h-1v-2z"/></svg>
